X: 1
T: Dusty Miller, The
M: 9/8
L: 1/8
R: slip jig
K: Gmaj
|:B2d d2A BAG|E2A A2B cBA|B2d d2A BAG|D2G G2A BAG:|
|:B2d e2f g2a|a2A A2B cBA|B2d e2f g2a|g2e d2c BAG:|
